src/topics/icons/mattermost.svg

<svg height="256" preserveAspectRatio="xMidYMid" viewBox="0 0 256 256" width="256" xmlns="http://www.w3.org/2000/svg"><path d="m243.747227 73.364c-8.454-18.258-20.692-33.617-36.9-46.516.432 8.756 1.374 27.484 1.374 27.484s1.009 1.327 1.42 1.901c16.379 22.876 22.365 48.231 16.909 75.771-10.94 55.222-64.771 88.91-119.324 75.138-47.8919995-12.091-79.8779995-61.06-70.8209995-109.609 7.15-38.327 29.802-63.859 66.5849995-76.833l1.333-.504 1.046-.774c4.458-6.304 8.808-12.685 13.449-19.422-55.7469995 2.762-111.81399955 47.488-118.23799955 115.522-6.216 65.832 38.16900005 124.541 101.59599955 137.424 66.096 13.425 129.017-25.57 148.031-87.976 9.508-31.206 7.283-61.924-6.46-91.606zm-157.3109995 41.172c2.788 26.487 25.7459995 44.538 52.3029995 41.603 26.092-2.884 45.166-28.409 40.227-54.232-3.85-20.134-8.105-40.19-12.188-60.279-1.689-8.313-3.398-16.623-5.191-25.391-.706.621-1.034.883-1.333 1.176-8.94 8.764-17.875 17.533-26.815 26.297-10.886 10.673-21.757 21.36-32.669 32.006-10.9439995 10.677-15.9259995 23.707-14.3339995 38.82z"/></svg>

<?xml version="1.0" encoding="UTF-8" standalone="no"?>
<svg width="256px" height="256px" viewBox="0 0 256 256" version="1.1" xmlns="http://www.w3.org/2000/svg" xmlns:xlink="http://www.w3.org/1999/xlink" preserveAspectRatio="xMidYMid">
    <g>
        <path d="M243.747227,73.364 C235.293227,55.106 223.055227,39.747 206.847227,26.848 C207.279227,35.604 208.221227,54.332 208.221227,54.332 C208.221227,54.332 209.230227,55.659 209.641227,56.233 C226.020227,79.109 232.006227,104.464 226.550227,132.004 C215.610227,187.226 161.779227,220.914 107.226227,207.142 C59.3342275,195.051 27.3482275,146.082 36.4052275,97.533 C43.5552275,59.206 66.2072275,33.674 102.990227,20.7 L104.323227,20.196 L105.369227,19.422 C109.827227,13.118 114.177227,6.737 118.818227,0 C63.0712275,2.762 7.00422745,47.488 0.580227454,115.522 C-5.63577255,181.354 38.7492275,240.063 102.176227,252.946 C168.272227,266.371 231.193227,227.376 250.207227,164.97 C259.715227,133.764 257.490227,103.046 243.747227,73.364 Z M86.4362275,114.536 C89.2242275,141.023 112.182227,159.074 138.739227,156.139 C164.831227,153.255 183.905227,127.73 178.966227,101.907 C175.116227,81.773 170.861227,61.717 166.778227,41.628 C165.089227,33.315 163.380227,25.005 161.587227,16.237 C160.881227,16.858 160.553227,17.12 160.254227,17.413 C151.314227,26.177 142.379227,34.946 133.439227,43.71 C122.553227,54.383 111.682227,65.07 100.770227,75.716 C89.8262275,86.393 84.8442275,99.423 86.4362275,114.536 Z" fill="#000000"></path>
    </g>
</svg>
